X: 12
T: Orphan, The
M: 6/8
L: 1/8
Q: 125
R: Jig
K: Am
|:G|"Am"E2 AA GE | "C"cBc "G"dcd| "Am"ege dcd| "Em"ecA GED|"Am"E2 AA GE| "C"cBc "G"dcd|
"Am"ege dcB|"Em"ceB "Am"A2 :: e|"F"aba "C"ged| "Am"cde "G"geg| "Am"age "G"ged| "Am"ecA "Em"GED| "Am"E2 AA GE|
"C"cBc "G"dcd| "Am"ege dcB| "Em"ceB "Am"A2:|
